X: 1
T: Up Downey
C: Tola Custy
M: 4/4
L: 1/8
D: Calico - Songdogs
R: reel
K: Emin
EFGA ~B2ed|ABGB AGFG|DEGA ~B2ef|gfeg fazD|
EFGA ~B2ed|ABGB AGFG|DEGA ~B2ed|1 BAGF EB,~B,2:|2 BAGF EB~B2||
|:gfeg fegf|egfe a2~a2|gfeg fegf|egfe B2~B2|
gfeg fegf|egfe a2~a2|bagf agfg|e3e e2ee:|



